X: 2
T: The Dusty Miller
R: slip jig
M: 9/8
L: 1/8
K: Amaj
|:c2e e2B cBA|F2B B2c dcB|c2e e2B cBA|E2A A2B cBA:||:c2e f2g aga|b2B B2c dcB|c2e f2g a2b|a2f e2d cBA:|


Tune 28	Setting 12419

